outputs/icons/communication/inbox_round.svg

<svg xmlns="http://www.w3.org/2000/svg" width="1200" height="1200" fill="none"><path fill="#000" d="M950 150H249.5c-55.5 0-99 44.5-99 100l-.5 700c0 55 44 100 99.5 100H950c55 0 100-45 100-100V250c0-55.5-45-100-100-100m0 600H750c0 83-67.5 150-150 150s-150-67-150-150H249.5V250H950z"/></svg>

<svg width="1200" height="1200" viewBox="0 0 1200 1200" fill="none" xmlns="http://www.w3.org/2000/svg"><path d="M950 150H249.5C194 150 150.5 194.5 150.5 250L150 950C150 1005 194 1050 249.5 1050H950C1005 1050 1050 1005 1050 950V250C1050 194.5 1005 150 950 150ZM950 750H750C750 833 682.5 900 600 900C517.5 900 450 833 450 750H249.5V250H950V750Z" fill="black"/></svg>
